X: 122035
T: Last Chance
S: John Lavelle "@Home Alone"
Z: BB
L: 1/8
M: 2/4
R: polka
Q: 1/8=300
K: A 
E|A>B cd |ea e>d | cA AB/c/ |dB =GB |
A>B cd | ea e>d | cA BG | A3 :|
d|ea e2| ea e>d | cA AB/c/ |dB =GB |
ea e2| ea e>d | cA BG | A3 d |
ea e2 | ea e>d | cA AB/c/ |dB =GB |
A>B cd | ea e>d | cA BG | A4 ||
